icons/svgs/sparkles-outline.svg

<svg width="24" height="24" viewBox="0 0 24 24" fill="none" xmlns="http://www.w3.org/2000/svg">
<path d="M14.7734 5.35938L17 4.5L17.8203 2.3125C17.8594 2.11719 18.0547 2 18.25 2C18.4062 2 18.6016 2.11719 18.6406 2.3125L19.5 4.5L21.6875 5.35938C21.8828 5.39844 22 5.59375 22 5.75C22 5.94531 21.8828 6.14062 21.6875 6.17969L19.5 7L18.6406 9.22656C18.6016 9.38281 18.4062 9.5 18.25 9.5C18.0547 9.5 17.8594 9.38281 17.8203 9.22656L17 7L14.7734 6.17969C14.6172 6.14062 14.5 5.94531 14.5 5.75C14.5 5.59375 14.6172 5.39844 14.7734 5.35938ZM2.35156 11.375L3.01562 11.1016L3.32812 10.9453H3.36719L6.80469 9.34375L8.40625 5.86719L8.5625 5.55469L8.875 4.89062C8.95312 4.65625 9.1875 4.5 9.42188 4.5C9.65625 4.5 9.89062 4.65625 10.0078 4.89062L10.3203 5.55469L10.4375 5.86719L10.4766 5.90625L12.0391 9.34375L15.5156 10.9453L15.8281 11.1016L16.4922 11.4141C16.7266 11.4922 16.8828 11.7266 16.8828 11.9609C16.8828 12.1953 16.7266 12.4297 16.4922 12.5469L15.8281 12.8203L15.5156 12.9766L12.0391 14.5781L10.4375 18.0156V18.0547L10.2812 18.3672L10.0078 19.0312C9.89062 19.2656 9.65625 19.4219 9.42188 19.4219C9.1875 19.4219 8.95312 19.2656 8.875 19.0312L8.5625 18.3672L8.40625 18.0547V18.0156L6.80469 14.5781L3.36719 12.9766H3.32812L3.01562 12.8203L2.35156 12.5469C2.11719 12.4297 2 12.1953 2 11.9609C2 11.7266 2.11719 11.4922 2.35156 11.375ZM5.59375 11.9609L7.58594 12.8984C7.97656 13.0547 8.32812 13.4062 8.52344 13.7969L9.42188 15.7891L10.3594 13.7969C10.5547 13.4062 10.8672 13.0547 11.2578 12.8984L13.25 11.9609L11.2578 11.0234C10.8672 10.8672 10.5547 10.5156 10.3594 10.125L9.42188 8.13281L8.52344 10.125C8.32812 10.5156 7.97656 10.8672 7.58594 11.0234L5.59375 11.9609ZM17 17L17.8203 14.8125C17.8594 14.6172 18.0547 14.5 18.25 14.5C18.4062 14.5 18.6016 14.6172 18.6406 14.8125L19.5 17L21.6875 17.8594C21.8828 17.8984 22 18.0938 22 18.25C22 18.4453 21.8828 18.6406 21.6875 18.6797L19.5 19.5L18.6406 21.7266C18.6016 21.8828 18.4062 22 18.25 22C18.0547 22 17.8594 21.8828 17.8203 21.7266L17 19.5L14.7734 18.6797C14.6172 18.6406 14.5 18.4453 14.5 18.25C14.5 18.0938 14.6172 17.8984 14.7734 17.8594L17 17Z" fill="black"/>
</svg>

<svg xmlns="http://www.w3.org/2000/svg" width="24" height="24" fill="currentColor" class="icon-sparkles-outline" viewBox="0 0 24 24">
  <mask id="a" width="20" height="20" x="2" y="2" maskUnits="userSpaceOnUse" style="mask-type:alpha">
    <path d="M14.773 5.36 17 4.5l.82-2.187c.04-.196.235-.313.43-.313.156 0 .352.117.39.313L19.5 4.5l2.188.86c.195.038.312.234.312.39 0 .195-.117.39-.312.43L19.5 7l-.86 2.227c-.038.156-.234.273-.39.273-.195 0-.39-.117-.43-.273L17 7l-2.227-.82c-.156-.04-.273-.235-.273-.43 0-.156.117-.352.273-.39M2.352 11.374l.664-.273.312-.157h.04l3.437-1.601 1.601-3.477.156-.312.313-.664a.59.59 0 0 1 .547-.391c.234 0 .469.156.586.39l.312.665.117.312.04.04 1.562 3.437 3.477 1.601.312.157.664.312c.235.078.39.313.39.547s-.155.469-.39.586l-.664.273-.312.157-3.477 1.601-1.601 3.438v.039l-.157.312-.273.664c-.117.235-.352.39-.586.39a.59.59 0 0 1-.547-.39l-.312-.664-.157-.312v-.04l-1.601-3.437-3.438-1.601h-.039l-.312-.157-.664-.273A.65.65 0 0 1 2 11.96c0-.234.117-.469.352-.586m3.242.586 1.992.937c.39.157.742.508.937.899l.899 1.992.937-1.992c.196-.39.508-.742.899-.899l1.992-.937-1.992-.938c-.39-.156-.703-.507-.899-.898l-.937-1.992-.899 1.992c-.195.39-.546.742-.937.898zM17 17l.82-2.187c.04-.196.235-.313.43-.313.156 0 .352.117.39.313L19.5 17l2.188.86c.195.038.312.234.312.39 0 .195-.117.39-.312.43l-2.188.82-.86 2.227c-.038.156-.234.273-.39.273-.195 0-.39-.117-.43-.273L17 19.5l-2.227-.82c-.156-.04-.273-.235-.273-.43 0-.156.117-.352.273-.39z"/>
  </mask>
  <g mask="url(#a)">
    <path d="M0 0h24v24H0z"/>
  </g>
</svg>
